libs/ui/packages/crypto-icons/src/svg/TERN.svg

<svg width="24" height="24" viewBox="0 0 24 24" fill="none">
<path d="M6.30263 16.3238L5.43113 15.8176V8.18331L6.83513 7.36731L7.70663 7.87281L6.30263 8.68956V11.3431L9.85313 13.4071V14.3888L6.30263 12.3256V16.3231V16.3238ZM18.5689 14.8051V15.8176L12.0004 19.6351L10.5964 18.8183V17.8058L12.0004 18.6218L14.2841 17.2951V13.1686L15.1286 12.6773V16.8046L18.5689 14.8051ZM20.2436 12.0001V11.8276L16.8536 13.7986V12.8161L20.2436 10.8458V7.20981L11.9989 2.41956L7.87763 4.81506L7.72913 4.90131L11.1191 6.87156L10.2746 7.36206L6.88463 5.39181L3.75638 7.20981V16.7903L7.87763 19.1858L8.02688 19.2721V15.3316L8.87138 15.8221V19.7633L12.0004 21.5806L20.2436 16.7903V12.0001ZM15.9724 10.1821L12.5599 12.1666V16.2931L12.0004 16.6178L11.5781 16.3726V12.4051L8.02688 10.3411V9.69156L8.44913 9.44556L11.8631 11.4293L15.4144 9.36681L15.9731 9.69156V10.1828L15.9724 10.1821ZM11.1289 4.87206L11.9996 4.36656L18.5681 8.18406V9.81531L17.6981 10.3208V8.68881L15.4129 7.36206L11.8624 9.42531L11.0171 8.93481L14.5684 6.87081L11.1289 4.87206Z" fill="#F4C257"/>
</svg>

<svg width="24" height="24" viewBox="0 0 24 24" fill="none"><path fill="#f4c257" d="m6.303 16.324-.872-.506V8.183l1.404-.816.872.506-1.404.817v2.653l3.55 2.064v.982l-3.55-2.063zm12.266-1.519v1.013L12 19.635l-1.404-.817v-1.012l1.404.816 2.284-1.327V13.17l.845-.492v4.128zM20.244 12v-.172l-3.39 1.97v-.982l3.39-1.97V7.21l-8.245-4.79-4.121 2.395-.149.086 3.39 1.97-.844.491-3.39-1.97L3.756 7.21v9.58l4.122 2.396.149.086v-3.94l.844.49v3.941l3.13 1.818 8.243-4.79zm-4.272-1.818-3.412 1.985v4.126l-.56.325-.422-.245v-3.968l-3.551-2.064v-.65l.422-.245 3.414 1.983 3.551-2.062.56.325v.49zm-4.843-5.31.87-.505 6.57 3.817v1.631l-.87.506V8.689l-2.286-1.327-3.55 2.063-.846-.49 3.551-2.064z"/></svg>
